!!!OTL: Das wackere Maegdlein
!!!ARE: Europa, Mitteleuropa, Deutschland
!!!SCT: A0055
!!!YEM: Copyright 1995, estate of Helmut Schaffrath.
**kern
*ICvox
*Ivox
*M3/2
*k[b-e-]
*g:
{2g
=1
2g
2g
2g
=2
1dd
2cc
=3
1dd
2b-
=4
1a}
{2dd
=5
2dd
2dd
2cc
=6
1b-
2a
=7
1g
2b-
=8
1a
2r}
=9
{2g
2f#
2g
=10
1d}
{2a
=11
1b-
2b-
=12
1g
2g
=13
2.b-
4cc
2dd
=14
1dd}
{2cc
=15
2b-
2dd
2cc
=16
2b-
1a
=17
1g}
==
!!!AGN: Romanze, Ballade, Lied
!! Melodie in Souterliedekens 1540 ad Ps. 3
!!!ONB: ESAC (Essen Associative Code) Database: ALTDEU
!!!AMT: simple triple
!!!AIN: vox
!!!EED: Helmut Schaffrath
!!!EEV: 1.0
*-
